X:1
T:Mr George Forbes yr of New and Edinglassie
T:Mr George Forbes yr of New and Edinglassie
T:William Marshall
C:William Marshall
%%score 1 2
L:1/8
M:2/2
K:Ab
V:1 treble 
V:2 bass 
V:1
 C |] F2 FG A2 GF | GEGB eBGE | F2 FG A2 Ac | G<E BG F/F/F F2 :| (fg)fe (cf)af | ecBe GEBG | %7
 (fg)fe (cf)af | e>c BG F/F/F (F=e) | fagb afgd | e>c Be GEBG | AcBd cf[=eb]g | %12
 [ca]>f[gb]=e f/f/f f2 |] %13
V:2
 z |] [F,,F,]2 [F,,F,]2 [F,,F,]2 [F,,F,]2 | [E,,E,]2 [E,,E,]2 [E,,E,]2 [E,,E,]2 | %3
 [F,,F,]2 [F,,F,]2 [F,,F,]2 [F,,F,]2 | [E,,E,]2 [E,,E,]2 [F,,F,]2 [F,,F,]2 :| %5
 [F,A,C]2 [F,A,C]2 [F,A,C]2 [F,A,C]2 | [E,A,E]2 [E,G,E]2 [E,E]2 [E,E]2 | %7
 [F,A,C]2 [F,A,C]2 [F,A,C]2 [F,A,C]2 | [A,,A,]2 [E,,E,]2 [F,,F,]2 [F,,F,]2 | %9
 [F,C]2 [=E,C]2 [F,C]2 [A,B,]2 | [G,B,]A, [G,B,]2 [E,,E,]2 [E,,E,]2 | %11
 [F,,F,]2 [=E,,=E,]2 [F,,F,]2 [G,,G,]2 | [C,C]2 [C,C]2 [F,,F,]2 [F,,F,]2 |] %13

